src/ui/static/img/saude.svg

<svg height="512" viewBox="0 0 512 512" width="512" xmlns="http://www.w3.org/2000/svg"><g id="Filled_cutting_stroke_EX" data-name="Filled cutting stroke EX"><g><g><g><path d="m458 176h-10v-40h-176v40h-10a30 30 0 0 0 -30 30v242a40 40 0 0 0 40 40h176a40 40 0 0 0 40-40v-242a30 30 0 0 0 -30-30z" fill="#f7e1db"/><path d="m232 248h256v192h-256z" fill="#fa5d3f"/><path d="m296 288h152v72h-152z" fill="#fac850"/><path d="m268 24h184a20 20 0 0 1 20 20v82a10 10 0 0 1 -10 10h-204a10 10 0 0 1 -10-10v-82a20 20 0 0 1 20-20z" fill="#fa5d3f"/></g><path d="m168 112 14.142 25.858 25.858 14.142-25.858 14.142-14.142 25.858-14.142-25.858-25.858-14.142 25.858-14.142z" fill="#dcf9fe"/></g><g><rect fill="#79d8eb" height="256" rx="70" width="144" x="128" y="232"/><path d="m184 352h88v32h-72z" fill="#fff9f8"/></g><path d="m70.101 69.899-9.9 18.101-18.1 9.899 18.1 9.9 9.9 18.1 9.899-18.1 18.101-9.9-18.101-9.899z" fill="#dcf9fe"/><g><circle cx="112" cy="400" fill="#fac850" r="88"/><path d="m96 313.459h32v173.082h-32z" fill="#fffdfa" transform="matrix(.707 -.707 .707 .707 -250.039 196.353)"/><g><path d="m296 352v16h152a8 8 0 0 0 8-8v-72a8 8 0 0 0 -8-8h-152v16h144v56z"/><path d="m480 432h-184v16h184a32.0361 32.0361 0 0 1 -32 32h-176a32.2765 32.2765 0 0 1 -6.4082-.64l-3.1836 15.68a48.3015 48.3015 0 0 0 9.5918.96h176a48.0543 48.0543 0 0 0 48-48v-152h-16z"/><path d="m458 168h-2v-24h6a18.02 18.02 0 0 0 18-18v-82a28.0314 28.0314 0 0 0 -28-28h-148v16h148a12.0137 12.0137 0 0 1 12 12v82a2.002 2.002 0 0 1 -2 2h-204a2.002 2.002 0 0 1 -2-2v-82a12.0137 12.0137 0 0 1 12-12h20v-16h-20a28.0314 28.0314 0 0 0 -28 28v82a18.02 18.02 0 0 0 18 18h6v24h-2a38.0433 38.0433 0 0 0 -38 38v2h16v-2a22.0248 22.0248 0 0 1 22-22h196a22.0248 22.0248 0 0 1 22 22v34h-200v16h200v24h16v-74a38.0433 38.0433 0 0 0 -38-38zm-178 0v-24h160v24z"/><path d="m272 48h16v64h-16z"/><path d="m304 48h16v64h-16z"/><path d="m336 48h16v64h-16z"/><path d="m368 48h16v64h-16z"/><path d="m400 48h16v64h-16z"/><path d="m432 48h16v64h-16z"/><path d="m296 392h48v16h-48z"/><path d="m360 392h96v16h-96z"/><path d="m124.1611 159.019 23.8023 13.0176 13.0176 23.8023a8 8 0 0 0 14.038 0l13.0176-23.8023 23.8023-13.0176a8 8 0 0 0 0-14.038l-23.8023-13.0176-13.0176-23.8023a8 8 0 0 0 -14.038 0l-13.0176 23.8023-23.8023 13.0176a8 8 0 0 0 0 14.038zm33.5357-14.142a8.004 8.004 0 0 0 3.18-3.18l7.1232-13.0246 7.123 13.0244a8.004 8.004 0 0 0 3.18 3.18l13.0246 7.1232-13.0244 7.123a8.004 8.004 0 0 0 -3.18 3.18l-7.1232 13.0246-7.123-13.0244a8.004 8.004 0 0 0 -3.18-3.18l-13.0246-7.1232z"/><path d="m280 302a78.0884 78.0884 0 0 0 -78-78h-4a78.2129 78.2129 0 0 0 -76.44 62.4087l15.6806 3.1826a62.161 62.161 0 0 1 60.7594-49.5913h4a62.07 62.07 0 0 1 62 62v42h-48v16h48v16h-40v16h40v26a62.07 62.07 0 0 1 -62 62h-4a61.9429 61.9429 0 0 1 -19.4878-3.1221l-5.0244 15.19a77.92 77.92 0 0 0 24.5122 3.9321h4a78.0884 78.0884 0 0 0 78-78z"/><path d="m38.2617 104.9185 16.0449 8.7749 8.7749 16.0449a8.0005 8.0005 0 0 0 14.0381 0l8.7749-16.0449 16.045-8.7749a8.0005 8.0005 0 0 0 0-14.0381l-16.045-8.7749-8.7745-16.045a8.0005 8.0005 0 0 0 -14.0381 0l-8.7749 16.045-16.0453 8.7745a8.0005 8.0005 0 0 0 0 14.0381zm25.7783-9.8995a8.0031 8.0031 0 0 0 3.18-3.18l2.88-5.2671 2.88 5.2671a8.0022 8.0022 0 0 0 3.18 3.18l5.2671 2.88-5.2671 2.88a8.0031 8.0031 0 0 0 -3.18 3.18l-2.88 5.2671-2.88-5.2661a8.004 8.004 0 0 0 -3.18-3.18l-5.2671-2.88z"/><path d="m208 400a96 96 0 1 0 -96 96 96.1087 96.1087 0 0 0 96-96zm-16 0a79.5123 79.5123 0 0 1 -9.0742 36.9849l-107.9104-107.9109a79.9822 79.9822 0 0 1 116.9846 70.926zm-29.3964 61.918-68.9469-68.9473-11.3134 11.3135 66.6413 66.6418a79.9821 79.9821 0 0 1 -107.91-107.9109l26.6416 26.6416 11.3135-11.3134-28.9475-28.9472a80.7171 80.7171 0 0 1 11.3142-11.3141l112.5214 112.5218a80.7124 80.7124 0 0 1 -11.3142 11.3142z"/></g></g></g></g></svg>

<svg width="512" height="512" viewBox="0 0 512 512" fill="none" xmlns="http://www.w3.org/2000/svg">
<path d="M458 176H448V136H272V176H262C254.044 176 246.413 179.161 240.787 184.787C235.161 190.413 232 198.044 232 206V448C232 458.609 236.214 468.783 243.716 476.284C251.217 483.786 261.391 488 272 488H448C458.609 488 468.783 483.786 476.284 476.284C483.786 468.783 488 458.609 488 448V206C488 198.044 484.839 190.413 479.213 184.787C473.587 179.161 465.956 176 458 176Z" fill="#E8F8FC"/>
<path d="M232 248H488V440H232V248Z" fill="#FAE1DF"/>
<path d="M296 288H448V360H296V288Z" fill="#00B6C8"/>
<path d="M268 24H452C457.304 24 462.391 26.1071 466.142 29.8579C469.893 33.6086 472 38.6957 472 44V126C472 128.652 470.946 131.196 469.071 133.071C467.196 134.946 464.652 136 462 136H258C255.348 136 252.804 134.946 250.929 133.071C249.054 131.196 248 128.652 248 126V44C248 38.6957 250.107 33.6086 253.858 29.8579C257.609 26.1071 262.696 24 268 24V24Z" fill="#FAE1DF"/>
<path d="M168 112L182.142 137.858L208 152L182.142 166.142L168 192L153.858 166.142L128 152L153.858 137.858L168 112Z" fill="#DCF9FE"/>
<path d="M202 232H198C159.34 232 128 263.34 128 302V418C128 456.66 159.34 488 198 488H202C240.66 488 272 456.66 272 418V302C272 263.34 240.66 232 202 232Z" fill="#79D8EB"/>
<path d="M184 352H272V384H200L184 352Z" fill="#FAFAFA"/>
<path d="M70.1016 69.8989L60.2016 87.9999L42.1016 97.8989L60.2016 107.799L70.1016 125.899L80.0006 107.799L98.1016 97.8989L80.0006 87.9999L70.1016 69.8989Z" fill="#DCF9FE"/>
<path d="M112 488C160.601 488 200 448.601 200 400C200 351.399 160.601 312 112 312C63.3989 312 24 351.399 24 400C24 448.601 63.3989 488 112 488Z" fill="#00B6C8"/>
<path d="M39.4492 350.096L62.0732 327.472L184.442 449.841L161.818 472.465L39.4492 350.096Z" fill="#DDDDDD"/>
<path d="M296 352V368H448C450.122 368 452.157 367.157 453.657 365.657C455.157 364.157 456 362.122 456 360V288C456 285.878 455.157 283.843 453.657 282.343C452.157 280.843 450.122 280 448 280H296V296H440V352H296Z" fill="#546A7B"/>
<path d="M480 432H296V448H480C479.99 456.484 476.616 464.618 470.617 470.617C464.618 476.616 456.484 479.99 448 480H272C269.848 480.001 267.701 479.786 265.592 479.36L262.408 495.04C265.565 495.679 268.779 496.001 272 496H448C460.726 495.986 472.927 490.924 481.925 481.925C490.924 472.927 495.986 460.726 496 448V296H480V432Z" fill="#546A7B"/>
<path d="M458 168H456V144H462C466.772 143.995 471.348 142.097 474.722 138.722C478.097 135.348 479.995 130.772 480 126V44C479.992 36.5765 477.039 29.4594 471.79 24.2102C466.541 18.961 459.424 16.0083 452 16H304V32H452C455.181 32.0036 458.232 33.2691 460.481 35.5187C462.731 37.7684 463.996 40.8185 464 44V126C463.999 126.53 463.789 127.039 463.414 127.414C463.039 127.789 462.53 127.999 462 128H258C257.47 127.999 256.961 127.789 256.586 127.414C256.211 127.039 256.001 126.53 256 126V44C256.004 40.8185 257.269 37.7684 259.519 35.5187C261.768 33.2691 264.819 32.0036 268 32H288V16H268C260.576 16.0083 253.459 18.961 248.21 24.2102C242.961 29.4594 240.008 36.5765 240 44V126C240.005 130.772 241.903 135.348 245.278 138.722C248.652 142.097 253.228 143.995 258 144H264V168H262C251.925 168.011 242.266 172.019 235.143 179.143C228.019 186.266 224.011 195.925 224 206V208H240V206C240.007 200.167 242.327 194.575 246.451 190.451C250.575 186.327 256.167 184.007 262 184H458C463.833 184.007 469.425 186.327 473.549 190.451C477.673 194.575 479.993 200.167 480 206V240H280V256H480V280H496V206C495.989 195.925 491.981 186.266 484.857 179.143C477.733 172.019 468.075 168.011 458 168V168ZM280 168V144H440V168H280Z" fill="#546A7B"/>
<path d="M272 48H288V112H272V48Z" fill="#546A7B"/>
<path d="M304 48H320V112H304V48Z" fill="#546A7B"/>
<path d="M336 48H352V112H336V48Z" fill="#546A7B"/>
<path d="M368 48H384V112H368V48Z" fill="#546A7B"/>
<path d="M400 48H416V112H400V48Z" fill="#546A7B"/>
<path d="M432 48H448V112H432V48Z" fill="#546A7B"/>
<path d="M296 392H344V408H296V392Z" fill="#546A7B"/>
<path d="M360 392H456V408H360V392Z" fill="#546A7B"/>
<path d="M124.162 159.019L147.964 172.037L160.981 195.839C161.67 197.099 162.685 198.15 163.92 198.882C165.155 199.614 166.565 200 168 200C169.436 200 170.845 199.614 172.08 198.882C173.315 198.15 174.331 197.099 175.019 195.839L188.037 172.037L211.839 159.019C213.099 158.33 214.15 157.315 214.882 156.08C215.615 154.845 216.001 153.436 216.001 152C216.001 150.564 215.615 149.155 214.882 147.92C214.15 146.685 213.099 145.67 211.839 144.981L188.037 131.963L175.019 108.161C174.331 106.901 173.315 105.85 172.08 105.118C170.845 104.386 169.436 104 168 104C166.565 104 165.155 104.386 163.92 105.118C162.685 105.85 161.67 106.901 160.981 108.161L147.964 131.963L124.162 144.981C122.902 145.67 121.851 146.685 121.119 147.92C120.386 149.155 120 150.564 120 152C120 153.436 120.386 154.845 121.119 156.08C121.851 157.315 122.902 158.33 124.162 159.019ZM157.697 144.877C159.039 144.143 160.143 143.039 160.877 141.697L168 128.672L175.123 141.697C175.858 143.039 176.961 144.142 178.303 144.877L191.328 152L178.304 159.123C176.962 159.857 175.858 160.961 175.124 162.303L168 175.328L160.877 162.303C160.143 160.961 159.04 159.857 157.697 159.123L144.673 152L157.697 144.877Z" fill="#546A7B"/>
<path d="M280.001 302C279.977 281.32 271.752 261.494 257.129 246.872C242.506 232.249 222.68 224.023 202.001 224H198.001C180.029 224.037 162.617 230.262 148.696 241.628C134.774 252.994 125.192 268.807 121.561 286.409L137.241 289.591C140.129 275.603 147.747 263.036 158.813 254.004C169.878 244.972 183.717 240.027 198.001 240H202.001C218.438 240.019 234.197 246.557 245.821 258.18C257.444 269.803 263.982 285.562 264.001 302V344H216.001V360H264.001V376H224.001V392H264.001V418C263.982 434.438 257.444 450.197 245.821 461.82C234.197 473.443 218.438 479.981 202.001 480H198.001C191.38 480.008 184.8 478.953 178.513 476.878L173.488 492.068C181.396 494.68 189.672 496.008 198.001 496H202.001C222.68 495.977 242.506 487.751 257.129 473.128C271.752 458.506 279.977 438.68 280.001 418V302Z" fill="#546A7B"/>
<path d="M38.2627 104.919L54.3076 113.693L63.0825 129.738C63.7714 130.998 64.7867 132.049 66.0216 132.781C67.2566 133.513 68.6658 133.899 70.1015 133.899C71.5372 133.899 72.9464 133.513 74.1814 132.781C75.4164 132.049 76.4316 130.998 77.1206 129.738L85.8955 113.693L101.94 104.919C103.2 104.23 104.251 103.214 104.983 101.979C105.715 100.744 106.102 99.3352 106.102 97.8995C106.102 96.4638 105.715 95.0546 104.983 93.8196C104.251 92.5846 103.2 91.5694 101.94 90.8804L85.8955 82.1055L77.121 66.0605C76.432 64.801 75.4168 63.75 74.1818 63.0179C72.9468 62.2857 71.5376 61.8994 70.1019 61.8994C68.6662 61.8994 67.257 62.2857 66.022 63.0179C64.7871 63.75 63.7718 64.801 63.0829 66.0605L54.308 82.1055L38.2627 90.88C37.0031 91.569 35.9521 92.5842 35.22 93.8192C34.4879 95.0542 34.1016 96.4634 34.1016 97.8991C34.1016 99.3348 34.4879 100.744 35.22 101.979C35.9521 103.214 37.0031 104.229 38.2627 104.918V104.919ZM64.041 95.019C65.3831 94.2848 66.4867 93.1812 67.221 91.839L70.101 86.5719L72.981 91.839C73.7152 93.1812 74.8188 94.2848 76.161 95.019L81.4281 97.899L76.161 100.779C74.8188 101.513 73.7152 102.617 72.981 103.959L70.101 109.226L67.221 103.96C66.4867 102.618 65.3831 101.514 64.041 100.78L58.7739 97.9L64.041 95.019Z" fill="#546A7B"/>
<path d="M208 400C208 381.013 202.37 362.452 191.821 346.665C181.273 330.878 166.279 318.574 148.738 311.308C131.196 304.042 111.894 302.14 93.2714 305.845C74.6492 309.549 57.5436 318.692 44.1178 332.118C30.6919 345.544 21.5488 362.649 17.8447 381.271C14.1405 399.894 16.0416 419.196 23.3076 436.738C30.5736 454.279 42.8782 469.273 58.6653 479.821C74.4524 490.37 93.013 496 112 496C137.452 495.971 161.853 485.848 179.851 467.851C197.848 449.853 207.971 425.452 208 400V400ZM192 400C192.016 412.881 188.902 425.574 182.926 436.985L75.0154 329.074C87.2076 322.712 100.834 319.601 114.579 320.041C128.325 320.482 141.724 324.459 153.484 331.588C165.244 338.718 174.967 348.76 181.713 360.743C188.46 372.727 192.003 386.248 192 400V400ZM162.604 461.918L93.6567 392.971L82.3433 404.284L148.985 470.926C133.892 478.802 116.681 481.656 99.8546 479.075C83.028 476.494 67.4639 468.611 55.4265 456.573C43.3892 444.536 35.5065 428.972 32.9253 412.145C30.3441 395.319 33.199 378.107 41.0746 363.015L67.7162 389.657L79.0297 378.343L50.0822 349.396C53.4696 345.259 57.2596 341.469 61.3964 338.082L173.918 450.604C170.531 454.741 166.74 458.531 162.604 461.918V461.918Z" fill="#546A7B"/>
</svg>
